X:1
T:6 Minuets
T:6 Minuets
T:WoO 10
T:Ludwig van Beethoven
T:Public Domain (PianoXML typeset)
T:Public Domain (PianoXML typeset)
T:Public Domain (PianoXML typeset)
T:Public Domain (PianoXML typeset)
T:Public Domain (PianoXML typeset)
T:Public Domain (PianoXML typeset)
C:Ludwig van Beethoven
Z:Public Domain (PianoXML typeset)
%%score { ( 1 4 ) | ( 2 3 ) }
L:1/8
M:3/4
K:C
V:1 treble nm="Piano" snm="Pno."
V:4 treble 
V:2 bass 
V:3 bass 
V:1
!p! (C/B,/C/B,/) | C2 C2!f! [EGe]2 | [Ec]4!p! (C/B,/C/B,/) | C2 C2!f! [Geg]2 | %4
 [Ece]4!f! (G/^F/G/F/) | .G2 .c2 .e2 | .g2 .[Bdgb]2 .[cegc']2 | .[dfgd']2 ([df]>[eg]) ([ce]>[df]) | %8
 [Bd]2 z2 :: (g/^f/g/f/) | [Bdg]2 [Bdg]2 [Bdg]2 | [Bdg]4 (g/_a/g/a/) | [Bd=fg]2 [Bdfg]2 [Bdfg]2 | %13
 [Bdfg]4 (c/B/c/B/) | .c2 .e2 .[Gg]2 | .[cc']2 .[ee']2 .[gg']2 | [ff']4 (e'/d'/c'/b/) | %17
 c'2 z2!fine! :|[M:3/4]"^Trio"!p! G2 | c3 (Bc^c | ed=cBAG) | c2{/d} cBcd | B2 z2 G2 | f3 (efg | %24
 fedcBc) | .d2 .d2 (d>e) | c2 z2 :: E2 | .[^Ge].[Ae].[Be].[Ge].[Ae].[Be] | .c (cBcBc) | %30
 .[Ec].[Fc].[=Gc].[Ec].[Fc].[Gc] | A (A^GAGA) | f3 (efg | fedcBc) | .d2 .d2 (d>e) | c2 z2!D.C.! :| %36
[K:G][M:3/4] ([GB]>[Ac] | [Bd]>[^A^c] [Bd]>[Ac] [Bd]>[Ac]) | ([Bd]4 [=ce]>[^GB]) | %39
 ([=Ac]4 [Bd]>[FA]) | [=GB]2 z2 ([B,G]>[DA]) |!f! ([GB]>[F^A] [GB]>[FA] [GB]>[FA]) | %42
 [GB]4 [F=A][EG] | ([EG][DF])[DF][FA]([EG][^CE]) | D2 z2 :: (dg) | ([dg]2 [cf]2 [Bg]2) | %47
 a4 (g/f/e/d/) | ([Ac]2 [GB]2 [ce]>[Ac]) | ([GB]2 [FA]) z ([B,G]>[CA]) | %50
!f! ([DB]>[^C^A] [DB]>[CA] [DB]>[CA]) | [DB]4 ([Ec]>[B,^G]) | [CA]4 ([DB]>[A,F]) |1 [B,G]2 z2 :|2 %54
 [B,G]2 z!fine! |]:"^Trio"!p! (d^cd) | (BdGBDB) | (AcFADF) | (GFGAB^c) | (d^cded=c) | (B^ABcB=A) | %61
 (GBAGFA | EFGE^CA,) | D2 z :: (d^cd) | (e=cA)(BAB) | (cAF)(d^cd) | (e=cA)(BAB) | (cAF)(d^cd) | %69
 BdGBDg | (eg)(ce)(Ac) | (FADE=F^F) |1 (A2 G) :|2 (A2 G) z!D.C.! |][K:Eb][M:3/4] (B>e) | %75
 [Ee]4 (B>g) | [Gg]4 (B>b) | b4 (a/g/f/e/) | (e2 d) z (B>a) | a3 .f.d.B | .A.F.D.B,.E.G | %81
 ([GB]>[FA]) .[EG]2 .[A,DF]2 | [G,E]2 z2 :: (E>e) |!ff! .[Ee]2 .[Ed]2 .[Ec]2 | .[EB]2 z2 (E>e) | %86
 .[Ee]2 .[Ed]2 .[Ec]2 | .[EB]2 z2 (B>a) | [Aa]3 .f.d.B | .A.F.D.B,.E.G | %90
 ([GB]>[FA]) .[EG]2 .[A,DF]2 | [G,E]2 z2!fine! :|[M:3/4]"^Trio"!p! B,2 |: E6 | F2{/G} (FEFG) | %95
 E4 F>G | A2{/B} (AGAB) |!f! G2 (.g2 .g2) | (g3 f =e_e | decdef) |1 B2 z2 z2 :|2 B2 z2 z B |: %102
 (=ABABfe) | (e2 d2) z B | (=AB=AB [d^f][eg]) | ([eg]2 [d=f]2) z B | e4 (f/e/d/e/) | f3 (gad) | %108
 (e=efgad) |1 _e2 z2 z2 :|2 _e2 z2!D.C.! |][K:Bb][M:3/4] .B, .D.F |!p! [DFB]6 | (dc) (3c=Bc F2 | %114
 [F_Bd]6 |!f! (fe) c2 z2 |!p! [CFA]6 | .[DFB]2 .[EAc]2 .[FBd]2 | .G2 .[EGc]2 .[EA]2 | [DB]2 z :: %120
 .F .A.c | f6 | (f=e) (3ede c2 | f6 | (f_e) edec | [DFB]6 | (dc) (3c=Bc F2 | %127
 (Fd)([Ec][Ge])([CA][Ec]) |1 ([Ec]2 [DB]) :|2 ([Ec]2 [DB]) z!fine! |][M:3/4]"^Trio." F2- | %131
 F.E.D.C B2- | B.A.G.F e2- | e.d.c.B f2- | f.e.d.c [bd']2- | [bd'].[ac'].[gb].[fa] [=eg]2 | %136
 [fa]2 z2 ([fa][ac']) | ([ac'][gb])([gb][fa])([fa][=eg]) | f2 z2 :: F2- | F.E.D.C g2- | %141
 g.f.e.d [E-c]2 | E.D.C.B, f2- | f.e.d.c [f-d']2 | [fd'].[ec'].[db].[ca] [d'f']2- | %145
 [d'f'].[c'e'].[bd'].[ac'] ([bd'][d'f']) | ([d'f'][c'e'])([c'e'][bd'])([bd'][ac']) | b2 z2!D.C.! :| %148
[K:D][M:3/4]!ff! [Dd]2 | (D3 C/D/ E/D/C/B,/) | A,2 z2 A,>A, | (G3 F/G/ A/G/F/E/) | D2 z2 A2 | %153
 [FAdf]3 (e/f/ g/f/e/d/) | (d/c/B/A/) (A/G/F/E/) (E/D/C/B,/) | A,>E .[A,EG]2 .[A,DF]2 | %156
 .[A,CE]2 z2 :: a2 | A3 ^G/A/ B/A/G/A/ | (c2 B)(^A/B/ c/B/A/B/) | (d2 c2) .e2 | g2 z2 a2 | %162
!ff! [dfad']3 (c'/d'/ e'/d'/c'/b/) | (b/a/g/f/) (f/e/d/c/) (c/B/A/^G/) | A>d .[Adf]2 .[=Gce]2 | %165
 .[Fd]2 z2!fine! :|[M:3/4]"^Trio." (d>f) | a6- | a6- | a z a z a z | a z z2 (a>c') | e'6- | e'6- | %173
 e' z e' z e' z | a2 z2 :: (d>f) | a4 (e>g) | b4 (g>b) | d'4 e'2 | (d'2 ^c') z (d>f) | a6- | a6- | %182
 a z a z a z | d2 z2!D.C.! :|[K:C][M:3/4] (g>c') | ([ege']4 [dfd']2) | (.[ec']2 .[cc']2 .[cc']2) | %187
 [cc']2 [Bb]2 (d'/c'/b/c'/) | [dgd']2 z2 (g>c') | [ee']4 [ee']2 | [ee']2 [dd']2 [cc']2 | %191
 [Bb]2 [cc']2 [Aa]2 | [Gg]2 z2 :: (g>d') | [ff']2 ([ff'][ee'][dd'][cc']) | ([cc']2 [Bb]2) [cc']g | %196
 (gf) ([ff'][ee'][dd'][cc']) | ([cc']2 [Bb]2) (g>c') | ([ege']4 [dfd']2) | %199
 [cec']2 [cec']2 [cec']2 | ([cac']2 [fad']2) .[dfb]2 | .[cec']2 z2!fine! :| %202
[M:3/4]"^Trio"!f! G,>G, | C2 .[Gc]2 .[Gc]>.[Gc] | ([Bd]2 [Gc]) z G,>G, | C2 .[Gc]2 .[Gc]>.[Gc] | %206
 ([Bd]2 [Gc]) z z2 | z2!f! [eac']2 [dac']2 | z2 .[dgb]2 .[Bg]2 | z2 [Bdg]2 [Acd^f]2 | [GBdg]2 z2 :: %211
!f! G,>G, | (_A,2 G,) z [Bg]>[Bg] | ([c^f]2 [Bg]) z G,>G, | (^F,2 G,) z [Bg]>[Bg] | %215
 ([c=a]2 [Bg]) z z2 | z2!ff! [cec']2 [cec']2 | z2 [dac']2 [c_eac']2 | z2 [c=egc']2 [dfgb]2 | %219
 [cegc']2 z2!D.C.! :| %220
V:2
 (C,/B,,/C,/B,,/) | C,2 C,2 [C,C]2 | [C,C]2 [C,,C,]2 (C,/B,,/C,/B,,/) | C,2 C,2 [C,C]2 | %4
 [C,C]2 [C,,C,]2 (G,/^F,/G,/F,/) | .G,2 .C2 .E2 | .[G,G]2 .[F,F]2 .[E,E]2 | %7
 [B,,B,]2 [G,,G,]2 [C,C]2 | [G,,G,]2 G,,2 :: z2 | [G,,,G,,]2 [B,,,B,,]2 [D,,D,]2 | %11
 [G,,G,]2 [B,,B,]2 [D,D]2 | [F,F]2 [D,D]2 [B,,B,]2 | [G,,G,]2 [F,,F,]2 [D,,D,]2 | %14
 .[C,,C,]2 .E,2 .G,2 | .C2 .E2 .G2 | [G,B,DF]2 [G,B,DF]2 [G,B,DF]2 | [CE]2 C,2 :|[M:3/4] z2 | %19
 E,G,E,G,E,G, | F,G,F,G,F,G, | E,G,E,G,E,G, | G,,G,^F,G,B,G, | DG,A,G,B,G, | CG,DG,EG, | %25
 FG,FG,FG, | [CE]2 C,2 :: z2 | .E,.^F,.^G,.E,.F,.G, | .A, z z2 z2 | .C,.D,.E,.C,.D,.E, | %31
 F, z z2 z2 | [D,B,]G,A,G,B,G, | [C,C]G,DG,EG, | FG,FG,FG, | [CE]2 C,2 :|[K:G][M:3/4] z2 | %37
 G,,2 B,,2 D,2 | G,2 G,,2 z2 | D,2 D,,2 z2 | G,,2 G,,,2 z2 | G,,2 B,,2 ^D,2 | E,2 F,2 G,2 | %43
 A,2 z2 A,,2 | D,2 D2 :: z2 | [B,D]2 [A,D]2 [G,D]2 | D6 | G,4 C,2 | D,2 z2 z2 | %50
 [G,,,G,,]2 [B,,,B,,]2 [D,,D,]2 | [G,,G,]2 [=F,,=F,]2 [E,,E,]2- | [E,,E,]2 [_E,,_E,]2 [D,,D,]2 |1 %53
 G,,2 G,2 :|2 G,,2 G, |]: z z2 | G,,2 D,2 G,2 | C,2 D,2 F,2 | B,,2 D,2 G,2 | F,2 A,2 D2 | %60
 G,2 B,2 ^D,2 | E,2 ^C,2 =D,2 | G,,2 z2 A,,2 | D,2 z :: z z2 | D,2 z (D^CD) | (E=CA,)(B,^A,B,) | %67
 (C=A,F,)(G,F,G,) | (A,F,D,)(D,E,F,) | G,2 B,2 B,,2 | C,2 E,2 A,2 | F,2 A,2 C2 |1 (C2 B,) :|2 %73
 (C2 B,) z |][K:Eb][M:3/4] z2 | [E,G,]>[E,G,] [E,G,]2 z2 | [E,G,]>[E,G,] [E,G,]2 z2 | %77
 [E,G,]>[E,G,] [E,G,]>[E,G,] [E,G,]>[E,G,] | [F,A,]3 z z2 | [B,,,B,,]2 [B,,B,]2 z2 | %80
 z2 z .B,,.E,.G, | B,2 z2 B,,2 | E,2 E,,2 :: z2 | C,E,B,,E,A,,E, | G,,E,E,E,E,E, | C,E,B,,E,A,,E, | %87
 G,,B,A,G,F,E, | [D,F,A,B,]2 [D,F,A,B,]2 z2 | z2 z .A,.G,.E, | B,2 z2 B,,2 | E,2 E,,2 :| %92
[M:3/4] z2 |:!<(! G,B,G,B,G,B,!<)! | A,B,A,B,A,B, |!<(! G,B,G,B,G,B,!<)! | D,B,D,B,D,B, | %97
 E,ED,DC,C | =B,,=B,B,,B,C,C | F,_B,F,B,F,=A, |1 B,,B,=A,B,_A,B, :|2 B,,B,B,B,B,B, |: %102
 =A,B,A,B,G,B, | F,B,B,B,B,B, | G,B,F,B,E,B, | B,,B,B,B,=A,B, |!<(! G,B,G,B,G,B,!<)! | %107
 _A,B,A,B,A,B, | G,B,A,B,A,B, |1 [E,G,]B,B,B,B,B, :|2 [E,G,]2 z2 |][K:Bb][M:3/4] z z2 | %112
 [B,,B,]2 [F,,F,]2 [B,,B,]2 | [A,,A,]2 [F,,F,]2 [A,,A,]2 | [B,,B,]2 [F,,F,]2 [B,,B,]2 | %115
 [C,C]2 [F,,F,]2 z2 | z2 F,2 E,2 | D,2 C,2 B,,2 | E,2 C,2 F,2 | B,,2 z :: z z2 | %121
 [F,A,C]2 [F,A,C]2 [F,A,C]2 | [F,G,B,]2 [F,G,B,]2 [F,G,B,]2 | [F,A,C]2 [F,A,C]2 [F,A,C]2 | %124
 [F,A,C]E EDEC | [B,,B,]2 [F,,F,]2 [B,,B,]2 | [A,,A,]2 [F,,F,]2 [A,,A,]2 | %127
 [B,,B,]2 [E,,E,]2 [F,,F,]2 |1 B,,2 z :|2 B,,2 z2 |][M:3/4] z2 | B,,2 D,2 F,2 | G,,2 B,,2 E,2 | %133
 F,,2 C,2 E,2 | D,2 B,,2 z2 | C,2 C2 B,2 | A,2 F,2 z2 | B,2 C2 C,2 | F,2 F,,2 :: z2 | %140
 G,,2 G,2 [F,=B,]2 | [E,C]2 C,2 z2 | F,,2 F,2 [E,A,]2 | [D,B,]2 B,,2 z2 | B,,2 B,2 z2 | %145
 B,,2 B,2 z2 | E,2 F,2 F,,2 | B,,2 B,2 :|[K:D][M:3/4] [D,,D,]2 | (D,3 C,/D,/ E,/D,/C,/B,,/) | %150
 A,,2 z2 [A,,,A,,]>[A,,,A,,] | [G,,G,]3 (F,/G,/ A,/G,/F,/E,/) | D,2 z4 | [D,,D,]2 [D,D]2 z2 | z6 | %155
 A,,2 .C,2 .D,2 | .A,,2 z2 :: z2 | A,,/C,/E,/A,/ A,,/C,/E,/A,/ A,,/C,/E,/A,/ | %159
 A,,/D,/=F,/^G,/ A,,/D,/F,/G,/ A,,/D,/F,/G,/ | A,,/E,/=G,/A,/ A,,/E,/G,/A,/ A,,/E,/G,/A,/ | %161
 A,,/E,/G,/A,/ A,,/E,/G,/A,/ A,,/E,/G,/A,/ | [F,,A,,D,]2 [F,A,D]2 z2 | z6 | z2 A,2 A,,2 | D,2 z2 :| %166
[M:3/4][K:treble] (D>F) | [FA] z [EG] z [DF] z | [A,E] z [F,D] z [A,E] z | [DF] z [CEG] z [B,D] z | %170
[K:bass] [A,E] z A,, z (A,>C) | [CE] z [B,D] z [A,C] z | [E,B,] z [C,A,] z [E,B,] z | %173
 [A,C] z [B,D] z [E,B,] z | A, z A,, z :: z2 |[K:treble] ([CEG]2 [DF]) z z2 | %177
 ([^DFA]2 [EG]) z (G>B) | ([FA=c]2 [GB]2) E2 | (A2 A,) z[K:bass] (D,>F,) | %180
 [F,A,] z [E,G,] z [D,F,] z | [A,,E,] z [F,,D,] z [A,,E,] z | [D,F,] z [E,G,] z [A,,E,] z | %183
 D, z D,, z :|[K:C][M:3/4] z2 | [C,C]2[K:treble] [Cc]2 [Cc]2 | [Cc]2 [CGB]2 [CFA]2 | %187
 [CEG]2 [DFG]2 [CEG]2 | [B,DG]2 G,2 z2 |[K:bass] [C,C]2[K:treble] [CEG]2 [B,DE^G]2 | %190
 [A,CEA]2 [B,DE^G]2 [CEA]2 | G2 A2 [D^F]2 |[K:bass] G,2 G,,2 :: z2 | [B,D]G,[B,D]G,[B,D]G, | %195
 [B,D]G,[B,D]G,[B,D]G, | [B,D]G,[B,D]G,[B,D]G, | ([DF][^CE][DF][CE][DF][B,D]) | %198
 [=C,=C]2 [C,C]2 [C,C]2 | [C,C]2 [^G,,^G,]2 [A,,A,]2 | [F,,F,]2 [D,,D,]2 [G,,G,]2 | %201
 [C,,C,]2 [C,C]2 :|[M:3/4]!f! G,,>G,, | C,2 .[E,C]2 .[E,C]>.[E,C] | ([G,D]2 [E,C]) z G,,>G,, | %205
 C,2 .[CE]2 .[CE]>.[CE] | ([G,D]2 [CE]) z[K:treble] [Cc]>[Cc] | [A,A]2 z2 [^F,^F]>[F,F] | %208
 [G,G]2 z2[K:bass] [^C,^C]>[C,C] | [D,D]2 z2 [D,D]>[D,D] | [G,,G,]2 z2 :: G,,>G,, | %212
 (_A,,2 G,,) z [G,D]>[G,D] | ([_A,C]2 [G,D]) z G,,>G,, | (^F,,2 G,,) z [G,D]>[G,D] | %215
 ([^F,_E]2 [G,D]) z[K:treble] [G,G]>[G,G] | [Cc]2 z2 [A,A]>[A,A] | [F,F]2 z2 [^F,^F]>[F,F] | %218
 [G,G]2 z2[K:bass] [G,,G,]>[G,,G,] | [C,,C,]2 z2 :| %220
V:3
 x2 | x6 | x6 | x6 | x6 | x6 | x6 | x6 | x4 :: x2 | x6 | x6 | x6 | x6 | x6 | x6 | x6 | x4 :| %18
[M:3/4] x2 | C,6 | C,6 | C,6 | x6 | x6 | x6 | x6 | x4 :: x2 | x6 | x6 | x6 | x6 | x6 | x6 | x6 | %35
 x4 :|[K:G][M:3/4] x2 | x6 | x6 | x6 | x6 | x6 | x6 | x6 | x4 :: x2 | x6 | F,2 D,2 F,2 | x6 | x6 | %50
 x6 | x6 | x6 |1 x4 :|2 x3 |]: x3 | x6 | x6 | x6 | x6 | x6 | x6 | x6 | x3 :: x3 | x6 | x6 | x6 | %68
 x6 | x6 | C,6 | D,6 |1 G,3 :|2 G,3 x |][K:Eb][M:3/4] x2 | x6 | x6 | x6 | x6 | x6 | x6 | x6 | x4 :: %83
 x2 | x6 | x6 | x6 | x6 | x6 | x6 | x6 | x4 :|[M:3/4] x2 |: E,2 D,2 C,2 | B,,6 | E,2 D,2 C,2 | %96
 B,,6 | x6 | x6 | x6 |1 x6 :|2 x6 |: x6 | x6 | x6 | x6 | E,2 D,2 C,2 | B,,4 F,2 | E,2 B,,2 B,,2 |1 %109
 x6 :|2 x4 |][K:Bb][M:3/4] x3 | x6 | x6 | x6 | x6 | x6 | x6 | x6 | x3 :: x3 | x6 | x6 | x6 | x6 | %125
 x6 | x6 | x6 |1 x3 :|2 x4 |][M:3/4] x2 | x6 | x6 | x6 | x6 | x6 | x6 | x6 | x4 :: x2 | x6 | x6 | %142
 x6 | x6 | x6 | x6 | x6 | x4 :|[K:D][M:3/4] x2 | x6 | x6 | x6 | x6 | x6 | x6 | x6 | x4 :: x2 | x6 | %159
 x6 | x6 | x6 | x6 | x6 | x6 | x4 :|[M:3/4][K:treble] x2 | x6 | x6 | x6 |[K:bass] x6 | x6 | x6 | %173
 x6 | x4 :: x2 |[K:treble] x6 | x6 | x6 | x4[K:bass] x2 | x6 | x6 | x6 | x4 :|[K:C][M:3/4] x2 | %185
 x2[K:treble] x4 | x6 | x6 | x6 |[K:bass] x2[K:treble] x4 | x6 | D4 x2 |[K:bass] x4 :: x2 | x6 | %195
 x6 | x6 | x6 | x6 | x6 | x6 | x4 :|[M:3/4] x2 | x6 | x6 | x6 | x4[K:treble] x2 | x6 | %208
 x4[K:bass] x2 | x6 | x4 :: x2 | x6 | x6 | x6 | x4[K:treble] x2 | x6 | x6 | x4[K:bass] x2 | x4 :| %220
V:4
 x2 | x6 | x6 | x6 | x6 | x6 | x6 | x6 | x4 :: x2 | x6 | x6 | x6 | x6 | x6 | x6 | x6 | x4 :| %18
[M:3/4] x2 | x6 | x6 | x6 | x6 | x6 | x6 | x6 | x4 :: x2 | x6 | x6 | x6 | x6 | x6 | x6 | x6 | x4 :| %36
[K:G][M:3/4] x2 | x6 | x6 | x6 | x6 | x6 | x6 | x6 | x4 :: x2 | x6 | A2 x4 | x6 | x6 | x6 | x6 | %52
 x6 |1 x4 :|2 x3 |]: x3 | x6 | x6 | x6 | x6 | x6 | x6 | x6 | x3 :: x3 | x6 | x6 | x6 | x6 | x6 | %70
 x6 | x6 |1 x3 :|2 x4 |][K:Eb][M:3/4] x2 | x6 | x6 | x6 | x6 | x6 | x6 | x6 | x4 :: x2 | x6 | x6 | %86
 x6 | x6 | x6 | x6 | x6 | x4 :|[M:3/4] x2 |: x6 | x6 | x6 | x6 | x6 | x6 | x6 |1 x6 :|2 x6 |: x6 | %103
 x6 | x6 | x6 | x6 | x6 | x6 |1 x6 :|2 x4 |][K:Bb][M:3/4] x3 | x6 | [EF]2 x4 | x6 | %115
 [FA]2 [FA]2 x2 | x6 | x6 | x6 | x3 :: x3 | x6 | x6 | x6 | x6 | x6 | [EF]2 x4 | x6 |1 x3 :|2 x4 |] %130
[M:3/4] x2 | x4 B,2 | x4 E2 | x4 A2 | B2 x4 | x4 c2- | c.B.A.G A2 | x6 | x4 :: x2 | x6 | x6 | x6 | %143
 x6 | x6 | x6 | x6 | x4 :|[K:D][M:3/4] x2 | x6 | x6 | x6 | x6 | x6 | x6 | x6 | x4 :: x2 | x6 | x6 | %160
 x6 | x6 | x6 | x6 | x6 | x4 :|[M:3/4] x2 | z2 [eg] z [df] z | [ce] z [Ad] z [ce] z | %169
 [df] x [eg] x [df] x | [ce] x5 | z2 [bd'] z [ac'] z | [^gb] z [ea] z [gb] z | %173
 [ac'] x [bd'] x [^gb] x | a2 x2 :: x2 | ([eg]2 [df]) z x2 | ([fa]2 [eg]) z x2 | %178
 ([a=c']2 [gb]2) g2 | (f2 e) x3 | z2 [eg] z [df] z | [ce] z [Ad] z [ce] z | [df] x [eg] x [ce] x | %183
 d2 x2 :|[K:C][M:3/4] x2 | x6 | x6 | x6 | x6 | x6 | x6 | x6 | x4 :: x2 | x6 | x6 | x6 | x6 | x6 | %199
 x6 | x6 | x4 :|[M:3/4] x2 | x6 | x6 | x6 | x6 | x6 | x6 | x6 | x4 :: x2 | x6 | x6 | x6 | x6 | x6 | %217
 x6 | x6 | x4 :| %220

